flaticon/essential/stopwatch-3.svg

<svg xmlns="http://www.w3.org/2000/svg" width="32" height="32" viewBox="0 0 24 24">
    <path d="M 24 12 C 24 5.382812 18.617188 0 12 0 C 5.382812 0 0 5.382812 0 12 C 0 15.394531 1.417969 18.460938 3.691406 20.644531 L 3.679688 20.65625 L 4.035156 20.972656 C 4.871094 21.714844 5.796875 22.328125 6.789062 22.808594 C 6.828125 22.828125 6.871094 22.84375 6.914062 22.863281 C 7.039062 22.921875 7.160156 22.980469 7.289062 23.035156 C 7.367188 23.070312 7.445312 23.097656 7.523438 23.132812 C 7.617188 23.167969 7.707031 23.207031 7.800781 23.238281 C 7.894531 23.277344 7.992188 23.308594 8.085938 23.339844 C 8.164062 23.367188 8.242188 23.394531 8.324219 23.421875 C 8.425781 23.457031 8.53125 23.488281 8.636719 23.515625 C 8.710938 23.539062 8.785156 23.558594 8.859375 23.582031 C 8.964844 23.609375 9.074219 23.636719 9.179688 23.664062 C 9.257812 23.679688 9.332031 23.699219 9.40625 23.714844 C 9.515625 23.738281 9.621094 23.761719 9.730469 23.78125 C 9.8125 23.796875 9.890625 23.8125 9.972656 23.824219 C 10.078125 23.84375 10.179688 23.859375 10.285156 23.875 C 10.375 23.890625 10.46875 23.898438 10.5625 23.910156 C 10.65625 23.921875 10.75 23.933594 10.847656 23.945312 C 10.960938 23.953125 11.074219 23.960938 11.1875 23.96875 C 11.265625 23.976562 11.339844 23.980469 11.417969 23.984375 C 11.613281 23.996094 11.804688 24 12 24 C 12.195312 24 12.386719 23.996094 12.582031 23.984375 C 12.660156 23.980469 12.734375 23.972656 12.8125 23.96875 C 12.925781 23.960938 13.039062 23.953125 13.148438 23.945312 C 13.246094 23.933594 13.34375 23.921875 13.441406 23.910156 C 13.53125 23.898438 13.621094 23.890625 13.707031 23.875 C 13.816406 23.859375 13.921875 23.84375 14.027344 23.824219 C 14.105469 23.8125 14.183594 23.796875 14.257812 23.785156 C 14.371094 23.761719 14.484375 23.738281 14.59375 23.714844 C 14.664062 23.699219 14.734375 23.683594 14.800781 23.667969 C 14.917969 23.640625 15.03125 23.609375 15.144531 23.578125 C 15.210938 23.5625 15.277344 23.542969 15.339844 23.523438 C 15.453125 23.488281 15.566406 23.457031 15.679688 23.421875 C 15.746094 23.398438 15.8125 23.375 15.878906 23.351562 C 15.988281 23.316406 16.09375 23.277344 16.203125 23.238281 C 16.277344 23.210938 16.351562 23.179688 16.425781 23.152344 C 16.523438 23.113281 16.617188 23.074219 16.714844 23.035156 C 16.820312 22.988281 16.925781 22.941406 17.03125 22.890625 C 17.089844 22.863281 17.152344 22.835938 17.214844 22.808594 C 18.191406 22.335938 19.113281 21.726562 19.941406 20.992188 L 20.296875 20.679688 L 20.285156 20.667969 C 22.570312 18.480469 24 15.40625 24 12 Z M 0.800781 12 C 0.800781 5.824219 5.824219 0.800781 12 0.800781 C 18.175781 0.800781 23.199219 5.824219 23.199219 12 C 23.199219 15.222656 21.828125 18.128906 19.644531 20.175781 C 17.417969 18.496094 14.777344 17.601562 11.976562 17.601562 C 9.1875 17.601562 6.554688 18.488281 4.335938 20.15625 C 2.160156 18.109375 0.800781 15.210938 0.800781 12 Z M 18.914062 20.800781 C 18.730469 20.945312 18.546875 21.082031 18.355469 21.214844 C 18.304688 21.25 18.253906 21.285156 18.203125 21.320312 C 17.992188 21.460938 17.773438 21.59375 17.554688 21.71875 C 17.503906 21.746094 17.457031 21.777344 17.40625 21.804688 C 17.167969 21.9375 16.925781 22.058594 16.675781 22.171875 C 16.632812 22.191406 16.589844 22.210938 16.546875 22.230469 C 16.289062 22.347656 16.023438 22.453125 15.753906 22.550781 C 15.734375 22.558594 15.714844 22.5625 15.695312 22.570312 C 15.132812 22.765625 14.554688 22.917969 13.960938 23.023438 C 13.925781 23.03125 13.894531 23.035156 13.859375 23.042969 C 13.578125 23.089844 13.292969 23.125 13.011719 23.152344 C 12.964844 23.15625 12.921875 23.160156 12.875 23.164062 C 12.585938 23.183594 12.292969 23.199219 12 23.199219 C 11.707031 23.199219 11.414062 23.183594 11.121094 23.164062 C 11.074219 23.160156 11.03125 23.15625 10.984375 23.152344 C 10.699219 23.125 10.417969 23.089844 10.136719 23.042969 C 10.101562 23.035156 10.0625 23.027344 10.023438 23.023438 C 9.734375 22.96875 9.445312 22.910156 9.160156 22.835938 C 9.15625 22.832031 9.15625 22.832031 9.152344 22.832031 C 8.863281 22.757812 8.578125 22.667969 8.296875 22.570312 C 8.273438 22.558594 8.25 22.554688 8.226562 22.542969 C 7.960938 22.449219 7.703125 22.34375 7.445312 22.230469 C 7.398438 22.207031 7.347656 22.183594 7.300781 22.164062 C 7.058594 22.050781 6.820312 21.929688 6.585938 21.800781 C 6.527344 21.769531 6.472656 21.738281 6.417969 21.703125 C 6.195312 21.574219 5.972656 21.441406 5.757812 21.296875 C 5.707031 21.261719 5.65625 21.222656 5.605469 21.1875 C 5.417969 21.058594 5.238281 20.921875 5.058594 20.78125 C 5.019531 20.75 4.980469 20.71875 4.941406 20.6875 C 6.996094 19.191406 9.417969 18.398438 11.976562 18.398438 C 14.546875 18.398438 16.976562 19.195312 19.035156 20.707031 C 18.996094 20.738281 18.953125 20.769531 18.914062 20.800781 Z M 18.914062 20.800781"/>
    <path d="M12 3.199219C12.222656 3.199219 12.398438 3.019531 12.398438 2.800781L12.398438 2C12.398438 1.777344 12.222656 1.601562 12 1.601562 11.777344 1.601562 11.601562 1.777344 11.601562 2L11.601562 2.800781C11.601562 3.019531 11.777344 3.199219 12 3.199219zM21 12C21 12.222656 21.179688 12.398438 21.398438 12.398438L22.199219 12.398438C22.421875 12.398438 22.601562 12.222656 22.601562 12 22.601562 11.777344 22.421875 11.601562 22.199219 11.601562L21.398438 11.601562C21.179688 11.601562 21 11.777344 21 12zM3 12C3 11.777344 2.820312 11.601562 2.601562 11.601562L1.800781 11.601562C1.578125 11.601562 1.398438 11.777344 1.398438 12 1.398438 12.222656 1.578125 12.398438 1.800781 12.398438L2.601562 12.398438C2.820312 12.398438 3 12.222656 3 12zM16.5 4.40625C16.5625 4.441406 16.632812 4.460938 16.699219 4.460938 16.839844 4.460938 16.972656 4.386719 17.046875 4.257812L17.445312 3.566406C17.558594 3.375 17.492188 3.128906 17.300781 3.019531 17.109375 2.910156 16.863281 2.976562 16.753906 3.167969L16.355469 3.859375C16.242188 4.050781 16.308594 4.296875 16.5 4.40625zM21.035156 16.953125L20.339844 16.554688C20.148438 16.441406 19.90625 16.507812 19.792969 16.699219 19.683594 16.890625 19.75 17.136719 19.941406 17.246094L20.632812 17.644531C20.695312 17.683594 20.765625 17.699219 20.832031 17.699219 20.972656 17.699219 21.105469 17.628906 21.179688 17.5 21.289062 17.308594 21.226562 17.0625 21.035156 16.953125zM2.964844 7.445312L3.660156 7.847656C3.722656 7.882812 3.789062 7.898438 3.859375 7.898438 3.996094 7.898438 4.132812 7.828125 4.207031 7.699219 4.316406 7.507812 4.25 7.265625 4.058594 7.152344L3.367188 6.753906C3.175781 6.644531 2.929688 6.707031 2.820312 6.898438 2.710938 7.089844 2.773438 7.335938 2.964844 7.445312zM6.953125 4.246094C7.027344 4.375 7.160156 4.445312 7.296875 4.445312 7.367188 4.445312 7.433594 4.429688 7.496094 4.390625 7.691406 4.28125 7.753906 4.039062 7.644531 3.847656L7.246094 3.152344C7.132812 2.960938 6.886719 2.894531 6.699219 3.007812 6.507812 3.117188 6.441406 3.363281 6.550781 3.554688zM20.039062 7.714844C20.109375 7.714844 20.175781 7.695312 20.238281 7.660156L20.929688 7.257812C21.125 7.148438 21.1875 6.90625 21.078125 6.714844 20.96875 6.523438 20.722656 6.457031 20.53125 6.566406L19.839844 6.96875C19.648438 7.078125 19.582031 7.320312 19.691406 7.511719 19.765625 7.640625 19.902344 7.714844 20.039062 7.714844zM4.105469 16.511719C3.992188 16.320312 3.746094 16.257812 3.558594 16.367188L2.863281 16.765625C2.671875 16.878906 2.609375 17.121094 2.71875 17.3125 2.792969 17.441406 2.925781 17.511719 3.066406 17.511719 3.132812 17.511719 3.203125 17.496094 3.265625 17.460938L3.957031 17.058594C4.148438 16.949219 4.214844 16.703125 4.105469 16.511719zM12 13.152344C12.425781 13.152344 12.828125 12.984375 13.132812 12.683594 13.433594 12.378906 13.601562 11.980469 13.601562 11.550781 13.601562 11.292969 13.53125 11.046875 13.417969 10.824219L16.808594 7.433594C16.964844 7.277344 16.964844 7.023438 16.808594 6.867188 16.652344 6.710938 16.398438 6.710938 16.242188 6.867188L12.886719 10.222656C12.273438 9.824219 11.398438 9.890625 10.871094 10.421875 10.566406 10.722656 10.398438 11.125 10.398438 11.550781 10.398438 11.980469 10.566406 12.378906 10.867188 12.683594 11.171875 12.984375 11.574219 13.152344 12 13.152344zM11.433594 10.984375C11.585938 10.835938 11.785156 10.75 12 10.75 12.214844 10.75 12.414062 10.835938 12.566406 10.984375 12.71875 11.136719 12.800781 11.339844 12.800781 11.550781 12.800781 11.765625 12.71875 11.964844 12.566406 12.117188 12.261719 12.417969 11.738281 12.417969 11.433594 12.117188 11.28125 11.964844 11.199219 11.765625 11.199219 11.550781 11.199219 11.339844 11.28125 11.136719 11.433594 10.984375zM11.433594 10.984375"/>
</svg>

<svg xmlns="http://www.w3.org/2000/svg" width="32" height="32" viewBox="0 0 24 24">
    <path d="M24 12c0-6.617-5.383-12-12-12S0 5.383 0 12c0 3.395 1.418 6.46 3.691 8.645l-.011.011.355.317a12.051 12.051 0 0 0 2.754 1.836c.04.02.082.035.125.054.125.059.246.117.375.172.078.035.156.063.234.098.094.035.184.074.278.105.094.04.191.07.285.102.078.027.156.055.238.082.102.035.207.066.313.094l.222.066.32.082c.079.016.153.035.227.05.11.024.215.048.324.067.082.016.16.032.243.043.105.02.207.035.312.051.09.016.184.023.277.035l.286.035.34.024c.078.008.152.011.23.015.195.012.387.016.582.016.195 0 .387-.004.582-.016.078-.004.152-.011.23-.015l.336-.024.293-.035c.09-.012.18-.02.266-.035.11-.016.215-.031.32-.05.078-.012.157-.028.23-.04l.337-.07.207-.047c.117-.027.23-.059.344-.09.066-.015.132-.035.195-.055.113-.035.226-.066.34-.101l.199-.07c.11-.036.215-.075.324-.114.074-.027.149-.058.223-.086l.289-.117c.105-.047.21-.094.316-.144.059-.028.121-.055.184-.082a11.978 11.978 0 0 0 2.726-1.817l.356-.312-.012-.012A11.969 11.969 0 0 0 24 12zM.8 12C.8 5.824 5.825.8 12 .8 18.176.8 23.2 5.825 23.2 12a11.18 11.18 0 0 1-3.555 8.176 12.618 12.618 0 0 0-7.668-2.574c-2.79 0-5.422.886-7.641 2.554A11.169 11.169 0 0 1 .8 12zm18.114 8.8a11.46 11.46 0 0 1-.559.415l-.152.105c-.21.14-.43.274-.648.399-.051.027-.098.058-.149.086-.238.133-.48.254-.73.367l-.13.058a10.84 10.84 0 0 1-.792.32c-.02.009-.04.012-.059.02-.562.196-1.14.348-1.734.453-.035.008-.066.012-.102.02-.28.047-.566.082-.847.11l-.137.011c-.29.02-.582.035-.875.035-.293 0-.586-.015-.879-.035l-.137-.012a12.258 12.258 0 0 1-.96-.129c-.29-.054-.579-.113-.864-.187-.004-.004-.004-.004-.008-.004-.289-.074-.574-.164-.855-.262-.024-.011-.047-.015-.07-.027a11.223 11.223 0 0 1-.926-.379c-.242-.113-.48-.234-.715-.363a2.357 2.357 0 0 1-.168-.098 11.512 11.512 0 0 1-.66-.406c-.051-.035-.102-.074-.153-.11a11 11 0 0 1-.546-.406l-.118-.093a11.853 11.853 0 0 1 7.036-2.29c2.57 0 5 .797 7.058 2.309l-.12.094zm0 0"/>
    <path d="M12 3.2c.223 0 .398-.18.398-.4V2A.395.395 0 0 0 12 1.602a.395.395 0 0 0-.398.398v.8c0 .22.175.4.398.4zm0 0M21 12c0 .223.18.398.398.398h.801a.398.398 0 1 0 0-.796h-.8A.398.398 0 0 0 21 12zm0 0M3 12a.398.398 0 0 0-.398-.398H1.8a.398.398 0 1 0 0 .796h.8A.398.398 0 0 0 3 12zm0 0M16.5 4.406a.4.4 0 0 0 .547-.148l.398-.692a.397.397 0 0 0-.144-.546.402.402 0 0 0-.547.148l-.399.691a.397.397 0 0 0 .145.547zm0 0M21.035 16.953l-.695-.398a.398.398 0 1 0-.399.691l.692.399c.062.039.133.054.199.054a.4.4 0 0 0 .203-.746zm0 0M2.965 7.445l.695.403c.063.035.13.05.2.05.136 0 .273-.07.347-.199a.403.403 0 0 0-.148-.547l-.692-.398a.4.4 0 0 0-.402.691zm0 0M6.953 4.246a.395.395 0 0 0 .543.145.394.394 0 0 0 .149-.543l-.399-.696a.402.402 0 0 0-.695.402zm0 0M20.04 7.715c.07 0 .136-.02.198-.055l.692-.402a.394.394 0 0 0 .148-.543.402.402 0 0 0-.547-.149l-.691.403a.397.397 0 0 0-.149.543c.075.129.211.203.348.203zm0 0M4.105 16.512a.402.402 0 0 0-.546-.145l-.696.399a.401.401 0 0 0 .403.695l.691-.402a.402.402 0 0 0 .148-.547zm0 0M12 13.152a1.6 1.6 0 0 0 1.602-1.602c0-.257-.07-.503-.184-.726l3.39-3.39a.4.4 0 0 0-.566-.567l-3.355 3.356c-.614-.399-1.489-.332-2.016.199-.305.3-.473.703-.473 1.129A1.6 1.6 0 0 0 12 13.152zm-.566-2.168A.808.808 0 0 1 12 10.75a.798.798 0 0 1 .566 1.367c-.304.301-.828.301-1.132 0a.798.798 0 0 1 0-1.133zm0 0"/>
</svg>
